img/ellipse.svg

<svg fill="none" height="236" viewBox="0 0 436 236" width="436" xmlns="http://www.w3.org/2000/svg"><path d="m227.196 113.319c0 .845.684 1.53 1.529 1.53.844 0 1.529-.685 1.529-1.53zm208.294 111.952c.598-.597.598-1.565 0-2.162l-9.732-9.732c-.597-.598-1.565-.598-2.162 0-.598.597-.598 1.565 0 2.162l8.65 8.651-8.65 8.651c-.598.597-.598 1.565 0 2.163.597.597 1.565.597 2.162 0zm-319.93-2.61c-61.6838 0-111.63497-48.983-111.63497-109.342h-3.058498c0 62.107 51.379868 112.4 114.693468 112.4zm-111.63497-109.342c0-60.3578 49.95117-109.34094 111.63497-109.34094v-3.058504c-63.3136 0-114.693468 50.293744-114.693468 112.399444zm111.63497-109.34094c61.684 0 111.636 48.98314 111.636 109.34094h3.058c0-62.1057-51.38-112.399444-114.694-112.399444zm0 221.74094h318.849v-3.058h-318.849z" fill="#5b57ca"/></svg>

<svg width="436" height="236" viewBox="0 0 436 236" fill="none" xmlns="http://www.w3.org/2000/svg">
<path d="M227.196 113.319C227.196 114.164 227.88 114.849 228.725 114.849C229.569 114.849 230.254 114.164 230.254 113.319H227.196ZM435.49 225.271C436.088 224.674 436.088 223.706 435.49 223.109L425.758 213.377C425.161 212.779 424.193 212.779 423.596 213.377C422.998 213.974 422.998 214.942 423.596 215.539L432.246 224.19L423.596 232.841C422.998 233.438 422.998 234.406 423.596 235.004C424.193 235.601 425.161 235.601 425.758 235.004L435.49 225.271ZM115.56 222.661C53.8762 222.661 3.92503 173.678 3.92503 113.319H0.866532C0.866532 175.426 52.2464 225.719 115.56 225.719V222.661ZM3.92503 113.319C3.92503 52.9612 53.8762 3.97806 115.56 3.97806V0.919556C52.2464 0.919556 0.866532 51.2133 0.866532 113.319H3.92503ZM115.56 3.97806C177.244 3.97806 227.196 52.9612 227.196 113.319H230.254C230.254 51.2133 178.874 0.919556 115.56 0.919556V3.97806ZM115.56 225.719H434.409V222.661H115.56V225.719Z" fill="#5B57CA"/>
</svg>
